src/assets/images/Registrate/SucheCopy3.svg

<?xml version="1.0" encoding="UTF-8"?>
<svg width="18px" height="12px" viewBox="0 0 18 12" version="1.1" xmlns="http://www.w3.org/2000/svg" xmlns:xlink="http://www.w3.org/1999/xlink">
    <!-- Generator: Sketch 52.4 (67378) - http://www.bohemiancoding.com/sketch -->
    <title>Suche Copy 3</title>
    <desc>Created with Sketch.</desc>
    <defs>
        <path d="M9,0.375 C5.25,0.375 2.0475,2.7075 0.75,6 C2.0475,9.2925 5.25,11.625 9,11.625 C12.75,11.625 15.9525,9.2925 17.25,6 C15.9525,2.7075 12.75,0.375 9,0.375 Z M9,9.75 C6.93,9.75 5.25,8.07 5.25,6 C5.25,3.93 6.93,2.25 9,2.25 C11.07,2.25 12.75,3.93 12.75,6 C12.75,8.07 11.07,9.75 9,9.75 Z M9,3.75 C7.755,3.75 6.75,4.755 6.75,6 C6.75,7.245 7.755,8.25 9,8.25 C10.245,8.25 11.25,7.245 11.25,6 C11.25,4.755 10.245,3.75 9,3.75 Z" id="path-1"></path>
    </defs>
    <g id="Page-1" stroke="none" stroke-width="1" fill="none" fill-rule="evenodd">
        <g id="Registrate" transform="translate(-1344.000000, -662.000000)">
            <g id="Suche-Copy-3" transform="translate(1344.000000, 662.000000)">
                <mask id="mask-2" fill="white">
                    <use xlink:href="#path-1"></use>
                </mask>
                <use id="Eye" fill="#DFE2E6" xlink:href="#path-1"></use>
            </g>
        </g>
    </g>
</svg>

<svg xmlns="http://www.w3.org/2000/svg" width="18" height="12" xmlns:xlink="http://www.w3.org/1999/xlink"><title>Suche Copy 3</title><desc>Created with Sketch.</desc><defs><path id="a" d="M9 .38C5.25.38 2.05 2.7.75 6c1.3 3.3 4.5 5.63 8.25 5.63S15.95 9.29 17.25 6C15.95 2.7 12.75.37 9 .37zm0 9.37C6.93 9.75 5.25 8.07 5.25 6c0-2.07 1.68-3.75 3.75-3.75 2.07 0 3.75 1.68 3.75 3.75 0 2.07-1.68 3.75-3.75 3.75zm0-6c-1.25 0-2.25 1-2.25 2.25s1 2.25 2.25 2.25c1.24 0 2.25-1 2.25-2.25s-1-2.25-2.25-2.25z"/></defs><g fill="none"><g><g transform="translate(-1344 -662) translate(1344 662)"><mask><use xlink:href="#a"/></mask><use fill="#DFE2E6" xlink:href="#a"/></g></g></g></svg>
